packages/bezier-icons/icons/microphone.svg

<svg width="24" height="24" viewBox="0 0 24 24" fill="none" xmlns="http://www.w3.org/2000/svg">
<path fill-rule="evenodd" clip-rule="evenodd" d="M14 13V6C14 4.89543 13.1046 4 12 4C10.8954 4 9.99999 4.89543 9.99999 6V13C9.99999 14.1046 10.8954 15 12 15C13.1046 15 14 14.1046 14 13ZM12 2C9.79086 2 7.99999 3.79086 7.99999 6V13C7.99999 15.2091 9.79086 17 12 17C14.2091 17 16 15.2091 16 13V6C16 3.79086 14.2091 2 12 2ZM11 20.9381C7.38061 20.4868 4.51209 17.6177 4.06164 13.998C3.99344 13.45 4.44771 13 4.99999 13C5.55228 13 5.99126 13.4511 6.08225 13.9958C6.5566 16.8356 9.02554 19 12 19C14.9745 19 17.4434 16.8356 17.9177 13.9958C18.0087 13.4511 18.4477 13 19 13C19.5523 13 20.0066 13.45 19.9383 13.998C19.4879 17.6177 16.6194 20.4868 13 20.9381V23H11V20.9381Z" fill="#313234"/>
</svg>

<svg xmlns="http://www.w3.org/2000/svg" width="24" height="24" fill="none" viewBox="0 0 24 24"><path fill="#313234" fill-rule="evenodd" d="M14 13V6a2 2 0 1 0-4 0v7a2 2 0 1 0 4 0M12 2a4 4 0 0 0-4 4v7a4 4 0 0 0 8 0V6a4 4 0 0 0-4-4m-1 18.938a8.004 8.004 0 0 1-6.938-6.94C3.993 13.45 4.448 13 5 13s.991.451 1.082.996a6.002 6.002 0 0 0 11.836 0c.09-.545.53-.996 1.082-.996s1.007.45.938.998A8.004 8.004 0 0 1 13 20.938V23h-2z" clip-rule="evenodd"/></svg>
